X: 87
T:Dry River Waltz
R:Waltz
M:3/4
L:1/8
K:G
Bc|:d4^cd|c2B2A2|G3 AGF|G2B2c2|
d4^cd|e2d2B2|A3 BA^G|A2d2c2|
B3 cBA|B2A2G2|e6-|e2f2g2|
f6|f2e2d2|g3 agf|g2B2d2:|
b4b2|b2g2e2|d3 ed^c|d2B2d2|
f6-|f2e2f2|a2g2e2|d2B2G2|
b4b2|b2g2e2|d3 ed^c|d2f3g|
a6|c'2b2a2|g3 agf|g6:|
